src/icons/argo-smart-routing.svg

<svg width="64" height="64" viewBox="0 0 64 64" fill="none" xmlns="http://www.w3.org/2000/svg"><path fill-rule="evenodd" clip-rule="evenodd" d="M5.5 13C5.5 9.11999 8.66481 6 12.5374 6C16.4099 6 19.5748 9.11999 19.5748 13C19.5748 16.88 16.4099 20 12.5374 20C8.66481 20 5.5 16.88 5.5 13ZM12.5374 10C10.8458 10 9.5 11.3572 9.5 13C9.5 14.6428 10.8458 16 12.5374 16C14.2289 16 15.5748 14.6428 15.5748 13C15.5748 11.3572 14.2289 10 12.5374 10Z" fill="black"/><path d="M38.2148 29.9102L38.5885 25.5138L22.5528 16.3214L20.5472 19.7824L38.2148 29.9102Z" fill="black"/><path d="M14.5 41L14.5 23H10.5L10.5 41H14.5Z" fill="black"/><path d="M34.355 36.1029L36.3478 39.5545L40.8931 36.946L39.0274 33.426L34.355 36.1029Z" fill="black"/><path d="M29.4092 43.5365L27.4135 40.0799L31.7519 37.5943L33.7458 41.0478L29.4092 43.5365Z" fill="black"/><path d="M26.8072 45.0298L22.4705 47.5185L20.4719 44.0568L24.8104 41.5712L26.8072 45.0298Z" fill="black"/><path d="M49.8171 30.8087C50.9493 30.8087 51.8671 29.8909 51.8671 28.7587C51.8671 27.6266 50.9493 26.7088 49.8171 26.7088C48.685 26.7088 47.7672 27.6266 47.7672 28.7587C47.7672 29.8909 48.685 30.8087 49.8171 30.8087Z" fill="black"/><path fill-rule="evenodd" clip-rule="evenodd" d="M49.8167 20C47.5318 20 45.3389 20.9005 43.7135 22.5064C42.0881 24.1122 41.1611 26.294 41.1334 28.5787L41.1333 28.6029C41.1333 30.2234 41.6642 31.964 42.3216 33.5389C42.9937 35.1491 43.8743 36.7629 44.7306 38.1786C45.5903 39.6 46.4466 40.8567 47.0868 41.7567C47.4076 42.2077 47.6758 42.5716 47.8653 42.8247C47.9602 42.9513 48.1836 43.2451 48.1836 43.2451H51.3157L51.3167 43.2438L51.6299 42.8399C51.8232 42.5868 52.0968 42.2229 52.424 41.7719C53.0769 40.872 53.9504 39.6152 54.8274 38.1936C55.7008 36.7779 56.5995 35.1634 57.2856 33.552C57.9562 31.9767 58.5 30.2312 58.5 28.6029L58.4999 28.5787C58.4722 26.294 57.5452 24.1122 55.9198 22.5064C54.2944 20.9005 52.1015 20 49.8167 20ZM51.4231 36.0935C50.8484 37.0251 50.272 37.8852 49.7668 38.6078C49.274 37.8883 48.7128 37.0337 48.1533 36.1085C47.3552 34.7889 46.5815 33.3605 46.0129 31.9982C45.4323 30.6072 45.1361 29.4494 45.1333 28.6147C45.1514 27.3869 45.651 26.2151 46.5248 25.3519C47.4015 24.4857 48.5842 24 49.8167 24C51.0491 24 52.2318 24.4857 53.1085 25.3519C53.9823 26.2151 54.4819 27.3869 54.5 28.6147C54.4972 29.4417 54.1973 30.5945 53.6052 31.9851C53.0258 33.3462 52.2371 34.774 51.4231 36.0935Z" fill="black"/><path fill-rule="evenodd" clip-rule="evenodd" d="M12.5374 58C8.66481 58 5.5 54.88 5.5 51C5.5 47.12 8.66481 44 12.5374 44C16.4099 44 19.5748 47.12 19.5748 51C19.5748 54.88 16.4099 58 12.5374 58ZM9.5 51C9.5 52.6429 10.8458 54 12.5374 54C14.2289 54 15.5748 52.6429 15.5748 51C15.5748 49.3572 14.2289 48 12.5374 48C10.8458 48 9.5 49.3572 9.5 51Z" fill="black"/></svg>

<svg xmlns="http://www.w3.org/2000/svg" width="64" height="64" fill="none" viewBox="0 0 64 64"><path fill="#000" fill-rule="evenodd" d="M5.5 13c0-3.88 3.165-7 7.037-7 3.873 0 7.038 3.12 7.038 7s-3.165 7-7.038 7C8.665 20 5.5 16.88 5.5 13m7.037-3C10.846 10 9.5 11.357 9.5 13s1.346 3 3.037 3c1.692 0 3.038-1.357 3.038-3s-1.346-3-3.038-3" clip-rule="evenodd"/><path fill="#000" d="m38.215 29.91.373-4.396-16.035-9.193-2.006 3.461zM14.5 41V23h-4v18zm19.855-4.897 1.993 3.451 4.545-2.608-1.866-3.52zm-4.945 7.434-1.997-3.457 4.339-2.486 1.994 3.454zm-2.603 1.493-4.336 2.489-2-3.462 4.34-2.486zm23.01-14.221a2.05 2.05 0 1 0 0-4.1 2.05 2.05 0 0 0 0 4.1"/><path fill="#000" fill-rule="evenodd" d="M49.817 20a8.684 8.684 0 0 0-8.684 8.579v.024c0 1.62.531 3.361 1.189 4.936.672 1.61 1.552 3.224 2.409 4.64a59 59 0 0 0 3.453 5.066h3.132v-.001l.314-.404a59 59 0 0 0 3.197-4.646c.874-1.416 1.773-3.03 2.459-4.642.67-1.575 1.214-3.32 1.214-4.95v-.023A8.684 8.684 0 0 0 49.817 20m1.606 16.093a53 53 0 0 1-1.656 2.515 53 53 0 0 1-1.614-2.5c-.798-1.32-1.572-2.747-2.14-4.11-.58-1.39-.877-2.549-.88-3.383a4.683 4.683 0 0 1 9.367 0c-.003.827-.303 1.98-.895 3.37-.58 1.361-1.368 2.789-2.182 4.108M12.537 58C8.665 58 5.5 54.88 5.5 51s3.165-7 7.037-7c3.873 0 7.038 3.12 7.038 7s-3.165 7-7.038 7M9.5 51c0 1.643 1.346 3 3.037 3 1.692 0 3.038-1.357 3.038-3s-1.346-3-3.038-3S9.5 49.357 9.5 51" clip-rule="evenodd"/></svg>
